svg/battery_charging_wireless_alert.svg

<svg xmlns="http://www.w3.org/2000/svg" viewBox="0 0 24 24"><path d="M13 4h-2V2H5v2H3c-.6 0-1 .4-1 1v16c0 .6.4 1 1 1h10c.6 0 1-.4 1-1V5c0-.6-.4-1-1-1M9 18H7v-2h2zm0-4H7V8h2zm11.1-9.1-1.4 1.4c3.1 3.1 3.1 8.2 0 11.3l1.4 1.4c3.9-3.8 3.9-10.2 0-14.1m-2.9 2.9-1.4 1.4c1.6 1.6 1.6 4.1 0 5.7l1.4 1.4c2.4-2.4 2.4-6.2 0-8.5"/></svg>

<?xml version="1.0" encoding="UTF-8"?><!DOCTYPE svg PUBLIC "-//W3C//DTD SVG 1.1//EN" "http://www.w3.org/Graphics/SVG/1.1/DTD/svg11.dtd"><svg xmlns="http://www.w3.org/2000/svg" xmlns:xlink="http://www.w3.org/1999/xlink" version="1.1" id="mdi-battery-charging-wireless-alert" width="24" height="24" viewBox="0 0 24 24"><path d="M13 4H11V2H5V4H3C2.4 4 2 4.4 2 5V21C2 21.6 2.4 22 3 22H13C13.6 22 14 21.6 14 21V5C14 4.4 13.6 4 13 4M9 18H7V16H9V18M9 14H7V8H9V14M20.1 4.9L18.7 6.3C21.8 9.4 21.8 14.5 18.7 17.6L20.1 19C24 15.2 24 8.8 20.1 4.9M17.2 7.8L15.8 9.2C17.4 10.8 17.4 13.3 15.8 14.9L17.2 16.3C19.6 13.9 19.6 10.1 17.2 7.8Z" /></svg>
